X: 12896
T: Ffarwel Fy Ieuenctid
R: waltz
M: 3/4
K: Dmajor
|A,2|DE FG AF|G2D2F2|E2D2C2|D4:|
A,2|DE FG AF|EF GA BG|A4 B2|
AB cd ec|d2c2B2|A2dzF2|(3EFG D2C2|D4||

